static/img/common/ico-warning.svg

<svg width="16" height="16" viewBox="0 0 16 16" fill="none" xmlns="http://www.w3.org/2000/svg">
<g clip-path="url(#clip0_728_13)">
<path fill-rule="evenodd" clip-rule="evenodd" d="M8.89305 1.5C8.71005 1.19 8.37305 1 8.00605 1C7.63905 1 7.30305 1.19 7.12005 1.5L0.138055 13.499C0.0480905 13.6504 0.000610352 13.8233 0.000610352 13.9995C0.000610352 14.1757 0.0480905 14.3486 0.138055 14.5C0.331055 14.81 0.668055 15.001 1.02405 15.001H14.9881C15.3551 15.001 15.6921 14.811 15.8651 14.501C15.9519 14.3486 15.9984 14.1766 16.0001 14.0013C16.0019 13.8259 15.9588 13.6531 15.8751 13.499L8.89305 1.5ZM9.02606 12.997H6.98705V10.994H9.02606V12.997ZM9.02606 9.993H6.98705V5.987H9.02606V9.993Z" fill="#F7B52C"/>
</g>
<defs>
<clipPath id="clip0_728_13">
<rect width="16" height="16" fill="white"/>
</clipPath>
</defs>
</svg>

<svg xmlns="http://www.w3.org/2000/svg" width="16" height="16" fill="none" viewBox="0 0 16 16"><g clip-path="url(#a)"><path fill="#f7b52c" fill-rule="evenodd" d="M8.893 1.5c-.183-.31-.52-.5-.887-.5s-.703.19-.886.5L.138 13.499a.98.98 0 0 0 0 1.001c.193.31.53.501.886.501h13.964a1 1 0 0 0 1.012-1 1.03 1.03 0 0 0-.125-.502zm.133 11.497H6.987v-2.003h2.04zm0-3.004H6.987V5.987h2.04z" clip-rule="evenodd"/></g><defs><clipPath id="a"><path fill="#fff" d="M0 0h16v16H0z"/></clipPath></defs></svg>
